svg/Octicons/octoface.svg

<svg xmlns="http://www.w3.org/2000/svg" viewBox="0 0 1024 1024"><path d="m940.81 277.69c8.25-20.22 35.37-101.75-8.562-211.91 0 0-67.37-21.312-219.87 82.906-63.875-17.563-132.5-20.19-200.37-20.19-67.906 0-136.44 2.625-200.5 20.25-152.47-104.28-219.78-82.969-219.78-82.969-43.907 110.22-16.781 191.69-8.531 211.91-51.688 55.874-83.19 127.19-83.19 214.66 0 329.22 213.25 403.66 510.84 403.66 297.72 0 513.16-74.44 513.16-403.66 0-87.47-31.5-158.78-83.19-214.66m-428.81 555.31c-211.41 0-382.78-9.875-382.78-214.69 0-48.938 24.06-94.6 65.34-132.31 68.75-62.969 185.28-29.688 317.44-29.688 132.25 0 248.62-33.28 317.44 29.625 41.31 37.78 65.44 83.31 65.44 132.31-.002 204.88-171.5 214.75-382.88 214.75m-160.84-320.56c-42.469 0-76.906 51.06-76.906 114.19s34.438 114.31 76.906 114.31c42.37 0 76.81-51.19 76.81-114.31s-34.437-114.19-76.81-114.19m321.72 0c-42.37 0-76.875 51.06-76.875 114.19s34.5 114.31 76.875 114.31 76.81-51.19 76.81-114.31c.063-63.12-34.375-114.19-76.81-114.19"/></svg>

<svg height="1024" width="1024" xmlns="http://www.w3.org/2000/svg">
  <path d="M940.812 277.688c8.25-20.219 35.375-101.75-8.562-211.906 0 0-67.375-21.312-219.875 82.906C648.5 131.125 579.875 128.5 512 128.5c-67.906 0-136.438 2.625-200.5 20.25C159.031 44.46900000000005 91.719 65.78099999999995 91.719 65.78099999999995 47.812 176 74.938 257.46900000000005 83.188 277.688 31.5 333.562 0 404.875 0 492.344 0 821.562 213.25 896 510.844 896 808.562 896 1024 821.562 1024 492.344 1024 404.875 992.5 333.562 940.812 277.688zM512 833c-211.406 0-382.781-9.875-382.781-214.688 0-48.938 24.062-94.595 65.344-132.312 68.75-62.969 185.281-29.688 317.438-29.688 132.25 0 248.625-33.281 317.438 29.625 41.312 37.78 65.438 83.312 65.438 132.312C894.875 823.125 723.375 833 512 833zM351.156 512.438c-42.469 0-76.906 51.062-76.906 114.188s34.438 114.312 76.906 114.312c42.375 0 76.812-51.188 76.812-114.312S393.531 512.438 351.156 512.438zM672.875 512.438C630.5 512.438 596 563.5 596 626.625s34.5 114.312 76.875 114.312 76.812-51.188 76.812-114.312C749.75 563.5 715.312 512.438 672.875 512.438z" />
</svg>
